X:1
T:Hundred Pipers
M:6/8
L:1/8
R:jig
K:G
G2 A |: B2 D DB,D | E2 G G2 e | d2 B BAG | B2 A AGA ||
        B2 D DB,D | E2 G G2 e | d2 B ABA |1 G3 G2 A :|2 G3 B2 c ||
        d2 d dBd | e2 g gfe | d2 B BAG | B2 A ABc ||
        d2 d dBd | e2 g gfe | d2 B ABA | G3 B2 c |
        d2 d dBd | e2 g gfe | d2 B ABA | B2 A AGA ||
        B2 D DB,D | E2 G G2 e | d2 B ABA | G3 |]
